icons/twitch.svg

<svg width="24" height="24" viewBox="0 0 24 24" fill="none" xmlns="http://www.w3.org/2000/svg">
<path d="M11.607 5.321H13.179V10.036H11.606L11.607 5.321ZM15.929 5.321H17.5V10.036H15.929V5.321ZM6.50004 1L2.57104 4.929V19.071H7.28604V23L11.214 19.071H14.357L21.429 12V1H6.50004ZM19.857 11.214L16.714 14.357H13.571L10.821 17.107V14.357H7.28604V2.571H19.857V11.214Z" fill="black"/>
</svg>

<?xml version="1.0" encoding="utf-8"?>
<!-- Generator: Adobe Illustrator 26.0.3, SVG Export Plug-In . SVG Version: 6.00 Build 0)  -->
<svg version="1.1" id="Livello_1" xmlns="http://www.w3.org/2000/svg" xmlns:xlink="http://www.w3.org/1999/xlink" x="0px" y="0px"
	 viewBox="0 0 24 24" style="enable-background:new 0 0 24 24;" xml:space="preserve">
<g>
	<rect x="15.9" y="5.3" width="1.6" height="4.7"/>
	<rect x="11.6" y="5.3" width="1.6" height="4.7"/>
	<path d="M6.5,1L2.6,4.9v14.1h4.7V23l3.9-3.9h3.1l7.1-7.1V1H6.5z M19.9,11.2l-3.1,3.1h-3.1l-2.8,2.8v-2.8H7.3V2.6h12.6V11.2z"/>
</g>
</svg>
